Newaita-dark/apps/24/mpv.svg

<?xml version="1.0" encoding="UTF-8"?>
<svg xmlns="http://www.w3.org/2000/svg" xmlns:xlink="http://www.w3.org/1999/xlink" width="24pt" height="24pt" viewBox="0 0 24 24" version="1.1">
<defs>
<linearGradient id="linear0" gradientUnits="userSpaceOnUse" x1="254" y1="233.5" x2="254" y2="254.666672" gradientTransform="matrix(0.0468795,0,0,0.0468795,-0.0000028613,10.079089)">
<stop offset="0" style="stop-color:rgb(0%,0%,0%);stop-opacity:0.27451;"/>
<stop offset="1" style="stop-color:rgb(0%,0%,0%);stop-opacity:0;"/>
</linearGradient>
<radialGradient id="radial0" gradientUnits="userSpaceOnUse" cx="450.908936" cy="189.579361" fx="450.908936" fy="189.579361" r="21.166656" gradientTransform="matrix(0.000000130628,-0.0585994,-0.105479,-0.0000000761539,39.842197,47.696499)">
<stop offset="0" style="stop-color:rgb(0%,0%,0%);stop-opacity:0.313725;"/>
<stop offset="0.222222" style="stop-color:rgb(0%,0%,0%);stop-opacity:0.27451;"/>
<stop offset="1" style="stop-color:rgb(0%,0%,0%);stop-opacity:0;"/>
</radialGradient>
<radialGradient id="radial1" gradientUnits="userSpaceOnUse" cx="450.908936" cy="189.579361" fx="450.908936" fy="189.579361" r="21.166656" gradientTransform="matrix(-0.000000130628,0.0585994,0.105479,0.0000000761539,-15.90339,-5.645609)">
<stop offset="0" style="stop-color:rgb(0%,0%,0%);stop-opacity:0.313725;"/>
<stop offset="0.222222" style="stop-color:rgb(0%,0%,0%);stop-opacity:0.27451;"/>
<stop offset="1" style="stop-color:rgb(0%,0%,0%);stop-opacity:0;"/>
</radialGradient>
<radialGradient id="radial2" gradientUnits="userSpaceOnUse" cx="450.908936" cy="189.579361" fx="450.908936" fy="189.579361" r="21.166656" gradientTransform="matrix(-0.000000130628,-0.0585994,0.105479,-0.0000000761539,-15.90339,47.696499)">
<stop offset="0" style="stop-color:rgb(0%,0%,0%);stop-opacity:0.313725;"/>
<stop offset="0.222222" style="stop-color:rgb(0%,0%,0%);stop-opacity:0.27451;"/>
<stop offset="1" style="stop-color:rgb(0%,0%,0%);stop-opacity:0;"/>
</radialGradient>
<radialGradient id="radial3" gradientUnits="userSpaceOnUse" cx="450.908936" cy="189.579361" fx="450.908936" fy="189.579361" r="21.166656" gradientTransform="matrix(0.000000130628,0.0585994,-0.105479,0.0000000761539,39.842196,-5.64561)">
<stop offset="0" style="stop-color:rgb(0%,0%,0%);stop-opacity:0.313725;"/>
<stop offset="0.222222" style="stop-color:rgb(0%,0%,0%);stop-opacity:0.27451;"/>
<stop offset="1" style="stop-color:rgb(0%,0%,0%);stop-opacity:0;"/>
</radialGradient>
<linearGradient id="linear1" gradientUnits="userSpaceOnUse" x1="254" y1="233.5" x2="254" y2="-168.666656" gradientTransform="matrix(0.0468795,0,0,0.0468795,0,10.079087)">
<stop offset="0" style="stop-color:rgb(67.058824%,27.843137%,73.72549%);stop-opacity:1;"/>
<stop offset="1" style="stop-color:rgb(72.941176%,40.784314%,78.431373%);stop-opacity:1;"/>
</linearGradient>
<linearGradient id="linear2" gradientUnits="userSpaceOnUse" x1="370.416656" y1="159.416672" x2="370.416656" y2="180.583328" gradientTransform="matrix(1,0,0,1,0,10.583338)">
<stop offset="0" style="stop-color:rgb(87.843137%,87.843137%,87.843137%);stop-opacity:1;"/>
<stop offset="1" style="stop-color:rgb(98.039216%,98.039216%,98.039216%);stop-opacity:1;"/>
</linearGradient>
<linearGradient id="linear3" gradientUnits="userSpaceOnUse" x1="211.666672" y1="159.416672" x2="211.666672" y2="180.583328" gradientTransform="matrix(1,0,0,1,0,10.583338)">
<stop offset="0" style="stop-color:rgb(89.803922%,22.352941%,20.784314%);stop-opacity:1;"/>
<stop offset="1" style="stop-color:rgb(93.72549%,32.54902%,31.372549%);stop-opacity:1;"/>
</linearGradient>
<linearGradient id="linear4" gradientUnits="userSpaceOnUse" x1="285.75" y1="138.25" x2="285.75" y2="201.75" gradientTransform="matrix(1,0,0,1,26.458323,10.583338)">
<stop offset="0" style="stop-color:rgb(87.843137%,87.843137%,87.843137%);stop-opacity:1;"/>
<stop offset="1" style="stop-color:rgb(98.039216%,98.039216%,98.039216%);stop-opacity:1;"/>
</linearGradient>
<linearGradient id="linear5" gradientUnits="userSpaceOnUse" x1="254" y1="53.583332" x2="254" y2="-105.166656" gradientTransform="matrix(0.0468795,0,0,0.0468795,-0.250493,10.204491)">
<stop offset="0" style="stop-color:rgb(87.843137%,87.843137%,87.843137%);stop-opacity:1;"/>
<stop offset="1" style="stop-color:rgb(96.078431%,96.078431%,96.078431%);stop-opacity:1;"/>
</linearGradient>
</defs>
<g id="surface1">
<path style=" stroke:none;fill-rule:nonzero;fill:url(#linear0);" d="M 3.84375 21.027344 L 20.09375 21.027344 L 20.09375 22.019531 L 3.84375 22.019531 Z M 3.84375 21.027344 "/>
<path style=" stroke:none;fill-rule:nonzero;fill:url(#radial0);" d="M 20.09375 21.027344 L 22.078125 21.027344 L 22.078125 20.03125 L 20.09375 20.03125 Z M 20.09375 21.027344 "/>
<path style=" stroke:none;fill-rule:nonzero;fill:url(#radial1);" d="M 3.84375 21.027344 L 1.859375 21.027344 L 1.859375 22.019531 L 3.84375 22.019531 Z M 3.84375 21.027344 "/>
<path style=" stroke:none;fill-rule:nonzero;fill:url(#radial2);" d="M 3.84375 21.027344 L 1.859375 21.027344 L 1.859375 20.03125 L 3.84375 20.03125 Z M 3.84375 21.027344 "/>
<path style=" stroke:none;fill-rule:nonzero;fill:url(#radial3);" d="M 20.09375 21.027344 L 22.078125 21.027344 L 22.078125 22.019531 L 20.09375 22.019531 Z M 20.09375 21.027344 "/>
<path style=" stroke:none;fill-rule:nonzero;fill:url(#linear1);" d="M 2.480469 2.171875 L 21.335938 2.171875 C 21.882812 2.171875 22.328125 2.617188 22.328125 3.164062 L 22.328125 20.03125 C 22.328125 20.582031 21.882812 21.027344 21.335938 21.027344 L 2.480469 21.027344 C 1.933594 21.027344 1.488281 20.582031 1.488281 20.03125 L 1.488281 3.164062 C 1.488281 2.617188 1.933594 2.171875 2.480469 2.171875 Z M 2.480469 2.171875 "/>
<path style="fill-rule:nonzero;fill:url(#linear2);stroke-width:3;stroke-linecap:round;stroke-linejoin:miter;stroke:rgb(12.941177%,12.941177%,12.941177%);stroke-opacity:1;stroke-miterlimit:4;" d="M 74.076259 169.963238 L 433.875234 169.963238 C 439.791335 169.963238 444.540882 174.712784 444.540882 180.545561 C 444.540882 186.461662 439.791335 191.127883 433.875234 191.127883 L 74.076259 191.127883 C 68.243483 191.127883 63.493937 186.461662 63.493937 180.545561 C 63.493937 174.712784 68.243483 169.963238 74.076259 169.963238 Z M 74.076259 169.963238 " transform="matrix(0.0468795,0,0,0.0468795,0,10.079087)"/>
<path style="fill-rule:nonzero;fill:url(#linear3);stroke-width:3;stroke-linecap:round;stroke-linejoin:miter;stroke:rgb(12.941177%,12.941177%,12.941177%);stroke-opacity:1;stroke-miterlimit:4;" d="M 74.076259 169.963238 L 338.634329 169.963238 C 344.55043 169.963238 349.216651 174.296157 349.216651 179.628981 L 349.216651 181.545465 C 349.216651 186.878289 344.55043 191.127883 338.634329 191.127883 L 74.076259 191.127883 C 68.243483 191.127883 63.493937 186.878289 63.493937 181.545465 L 63.493937 179.628981 C 63.493937 174.296157 68.243483 169.963238 74.076259 169.963238 Z M 74.076259 169.963238 " transform="matrix(0.0468795,0,0,0.0468795,0,10.079087)"/>
<path style="fill-rule:nonzero;fill:url(#linear4);stroke-width:3;stroke-linecap:round;stroke-linejoin:miter;stroke:rgb(12.941177%,12.941177%,12.941177%);stroke-opacity:1;stroke-miterlimit:4;" d="M 322.802507 148.798592 C 340.300836 148.798592 354.549476 163.047232 354.549476 180.545561 C 354.549476 198.127215 340.300836 212.292529 322.802507 212.292529 C 305.220853 212.292529 291.055539 198.127215 291.055539 180.545561 C 291.055539 163.047232 305.220853 148.798592 322.802507 148.798592 Z M 322.802507 148.798592 " transform="matrix(0.0468795,0,0,0.0468795,0,10.079087)"/>
<path style=" stroke:none;fill-rule:nonzero;fill:rgb(100%,100%,100%);fill-opacity:0.392157;" d="M 2.480469 2.171875 C 1.929688 2.171875 1.488281 2.613281 1.488281 3.164062 L 1.488281 3.414062 C 1.488281 2.863281 1.929688 2.421875 2.480469 2.421875 L 21.335938 2.421875 C 21.882812 2.421875 22.328125 2.863281 22.328125 3.414062 L 22.328125 3.164062 C 22.328125 2.613281 21.882812 2.171875 21.335938 2.171875 Z M 2.480469 2.171875 "/>
<path style=" stroke:none;fill-rule:nonzero;fill:rgb(0%,0%,0%);fill-opacity:0.235294;" d="M 2.480469 21.027344 C 1.929688 21.027344 1.488281 20.582031 1.488281 20.03125 L 1.488281 19.785156 C 1.488281 20.335938 1.929688 20.777344 2.480469 20.777344 L 21.335938 20.777344 C 21.882812 20.777344 22.328125 20.335938 22.328125 19.785156 L 22.328125 20.03125 C 22.328125 20.582031 21.882812 21.027344 21.335938 21.027344 Z M 2.480469 21.027344 "/>
<path style=" stroke:none;fill-rule:nonzero;fill:url(#linear5);" d="M 9.6875 5.277344 C 9.410156 5.269531 9.179688 5.492188 9.179688 5.769531 L 9.179688 12.21875 C 9.179688 12.601562 9.59375 12.839844 9.921875 12.644531 L 15.382812 9.421875 C 15.703125 9.230469 15.703125 8.761719 15.382812 8.570312 L 9.921875 5.34375 C 9.851562 5.304688 9.773438 5.28125 9.6875 5.277344 Z M 9.6875 5.277344 "/>
<path style=" stroke:none;fill-rule:nonzero;fill:rgb(100%,100%,100%);fill-opacity:0.588235;" d="M 9.664062 5.277344 C 9.394531 5.28125 9.179688 5.5 9.179688 5.769531 L 9.179688 6.015625 C 9.179688 5.738281 9.410156 5.511719 9.6875 5.523438 C 9.773438 5.523438 9.851562 5.546875 9.921875 5.589844 L 15.382812 8.816406 C 15.503906 8.886719 15.578125 8.996094 15.609375 9.117188 C 15.660156 8.917969 15.582031 8.691406 15.382812 8.570312 L 9.921875 5.34375 C 9.851562 5.304688 9.773438 5.28125 9.6875 5.277344 C 9.679688 5.277344 9.671875 5.277344 9.664062 5.277344 Z M 9.664062 5.277344 "/>
<path style=" stroke:none;fill-rule:nonzero;fill:rgb(0%,0%,0%);fill-opacity:0.235294;" d="M 9.664062 12.714844 C 9.394531 12.710938 9.179688 12.492188 9.179688 12.222656 L 9.179688 11.976562 C 9.179688 12.257812 9.410156 12.480469 9.6875 12.472656 C 9.773438 12.46875 9.851562 12.445312 9.921875 12.402344 L 15.382812 9.175781 C 15.503906 9.105469 15.578125 8.996094 15.609375 8.875 C 15.660156 9.074219 15.582031 9.304688 15.382812 9.421875 L 9.921875 12.648438 C 9.851562 12.691406 9.773438 12.714844 9.6875 12.714844 C 9.679688 12.714844 9.671875 12.714844 9.664062 12.714844 Z M 9.664062 12.714844 "/>
<path style=" stroke:none;fill-rule:nonzero;fill:rgb(12.941177%,12.941177%,12.941177%);fill-opacity:1;" d="M 9.691406 5.207031 C 9.375 5.195312 9.109375 5.453125 9.109375 5.769531 L 9.109375 12.21875 C 9.109375 12.652344 9.585938 12.925781 9.960938 12.707031 L 15.417969 9.480469 C 15.785156 9.265625 15.785156 8.726562 15.417969 8.511719 L 9.960938 5.285156 C 9.878906 5.238281 9.785156 5.210938 9.691406 5.207031 Z M 9.6875 5.347656 C 9.757812 5.351562 9.828125 5.371094 9.886719 5.40625 L 15.34375 8.628906 C 15.625 8.796875 15.625 9.195312 15.34375 9.359375 L 9.886719 12.585938 C 9.601562 12.753906 9.25 12.550781 9.25 12.21875 L 9.25 5.769531 C 9.25 5.53125 9.445312 5.339844 9.6875 5.347656 Z M 9.6875 5.347656 "/>
<path style=" stroke:none;fill-rule:nonzero;fill:rgb(0%,0%,0%);fill-opacity:0.470588;" d="M 1.488281 15.679688 L 22.328125 15.679688 L 22.328125 15.945312 L 1.488281 15.945312 Z M 1.488281 15.679688 "/>
<path style=" stroke:none;fill-rule:nonzero;fill:rgb(0%,0%,0%);fill-opacity:0.235294;" d="M 1.488281 15.445312 L 22.328125 15.445312 L 22.328125 15.699219 L 1.488281 15.699219 Z M 1.488281 15.445312 "/>
<path style=" stroke:none;fill-rule:nonzero;fill:rgb(97.254902%,97.254902%,97.254902%);fill-opacity:0.392157;" d="M 1.488281 15.941406 L 22.328125 15.941406 L 22.328125 16.195312 L 1.488281 16.195312 Z M 1.488281 15.941406 "/>
<path style=" stroke:none;fill-rule:nonzero;fill:rgb(12.941177%,12.941177%,12.941177%);fill-opacity:1;" d="M 2.480469 2.101562 C 1.894531 2.101562 1.417969 2.578125 1.417969 3.164062 L 1.417969 20.03125 C 1.417969 20.621094 1.894531 21.097656 2.480469 21.097656 L 21.335938 21.097656 C 21.921875 21.097656 22.398438 20.621094 22.398438 20.03125 L 22.398438 3.164062 C 22.398438 2.578125 21.921875 2.101562 21.335938 2.101562 Z M 2.480469 2.242188 L 21.335938 2.242188 C 21.847656 2.242188 22.257812 2.652344 22.257812 3.164062 L 22.257812 20.03125 C 22.257812 20.546875 21.847656 20.957031 21.335938 20.957031 L 2.480469 20.957031 C 1.96875 20.957031 1.558594 20.546875 1.558594 20.03125 L 1.558594 3.164062 C 1.558594 2.652344 1.96875 2.242188 2.480469 2.242188 Z M 2.480469 2.242188 "/>
</g>
</svg>

<svg xmlns="http://www.w3.org/2000/svg" width="32" height="32" viewBox="0 0 24 24"><defs><linearGradient id="a" gradientUnits="userSpaceOnUse" x1="254" y1="233.5" x2="254" y2="254.667" gradientTransform="matrix(.04688 0 0 .04688 0 10.08)"><stop offset="0" stop-opacity=".275"/><stop offset="1" stop-opacity="0"/></linearGradient><radialGradient id="b" gradientUnits="userSpaceOnUse" cx="450.909" cy="189.579" fx="450.909" fy="189.579" r="21.167" gradientTransform="matrix(0 -.0586 -.10548 0 39.842 47.696)"><stop offset="0" stop-opacity=".314"/><stop offset=".222" stop-opacity=".275"/><stop offset="1" stop-opacity="0"/></radialGradient><radialGradient id="c" gradientUnits="userSpaceOnUse" cx="450.909" cy="189.579" fx="450.909" fy="189.579" r="21.167" gradientTransform="matrix(0 .0586 .10548 0 -15.903 -5.646)"><stop offset="0" stop-opacity=".314"/><stop offset=".222" stop-opacity=".275"/><stop offset="1" stop-opacity="0"/></radialGradient><radialGradient id="d" gradientUnits="userSpaceOnUse" cx="450.909" cy="189.579" fx="450.909" fy="189.579" r="21.167" gradientTransform="matrix(0 -.0586 .10548 0 -15.903 47.696)"><stop offset="0" stop-opacity=".314"/><stop offset=".222" stop-opacity=".275"/><stop offset="1" stop-opacity="0"/></radialGradient><radialGradient id="e" gradientUnits="userSpaceOnUse" cx="450.909" cy="189.579" fx="450.909" fy="189.579" r="21.167" gradientTransform="matrix(0 .0586 -.10548 0 39.842 -5.646)"><stop offset="0" stop-opacity=".314"/><stop offset=".222" stop-opacity=".275"/><stop offset="1" stop-opacity="0"/></radialGradient><linearGradient id="f" gradientUnits="userSpaceOnUse" x1="254" y1="233.5" x2="254" y2="-168.667" gradientTransform="matrix(.04688 0 0 .04688 0 10.08)"><stop offset="0" stop-color="#ab47bc"/><stop offset="1" stop-color="#ba68c8"/></linearGradient><linearGradient id="g" gradientUnits="userSpaceOnUse" x1="370.417" y1="159.417" x2="370.417" y2="180.583" gradientTransform="translate(0 10.583)"><stop offset="0" stop-color="#e0e0e0"/><stop offset="1" stop-color="#fafafa"/></linearGradient><linearGradient id="h" gradientUnits="userSpaceOnUse" x1="211.667" y1="159.417" x2="211.667" y2="180.583" gradientTransform="translate(0 10.583)"><stop offset="0" stop-color="#e53935"/><stop offset="1" stop-color="#ef5350"/></linearGradient><linearGradient id="i" gradientUnits="userSpaceOnUse" x1="285.75" y1="138.25" x2="285.75" y2="201.75" gradientTransform="translate(26.458 10.583)"><stop offset="0" stop-color="#e0e0e0"/><stop offset="1" stop-color="#fafafa"/></linearGradient><linearGradient id="j" gradientUnits="userSpaceOnUse" x1="254" y1="53.583" x2="254" y2="-105.167" gradientTransform="matrix(.04688 0 0 .04688 -.25 10.204)"><stop offset="0" stop-color="#e0e0e0"/><stop offset="1" stop-color="#f5f5f5"/></linearGradient></defs><path d="M3.844 21.027h16.25v.993H3.844zm0 0" fill="url(#a)"/><path d="M20.094 21.027h1.984v-.996h-1.984zm0 0" fill="url(#b)"/><path d="M3.844 21.027H1.859v.993h1.985zm0 0" fill="url(#c)"/><path d="M3.844 21.027H1.859v-.996h1.985zm0 0" fill="url(#d)"/><path d="M20.094 21.027h1.984v.993h-1.984zm0 0" fill="url(#e)"/><path d="M2.48 2.172h18.856c.547 0 .992.445.992.992v16.867c0 .551-.445.996-.992.996H2.48a.994.994 0 0 1-.992-.996V3.164c0-.547.446-.992.992-.992zm0 0" fill="url(#f)"/><path d="M74.076 169.963h359.8c5.915 0 10.665 4.75 10.665 10.583 0 5.916-4.75 10.582-10.666 10.582H74.076a10.544 10.544 0 0 1-10.582-10.582c0-5.833 4.75-10.583 10.582-10.583zm0 0" transform="matrix(.04688 0 0 .04688 0 10.08)" fill="url(#g)" stroke-width="3" stroke-linecap="round" stroke="#212121"/><path d="M74.076 169.963h264.558c5.916 0 10.583 4.333 10.583 9.666v1.916c0 5.333-4.667 9.583-10.583 9.583H74.076c-5.833 0-10.582-4.25-10.582-9.583v-1.916c0-5.333 4.75-9.666 10.582-9.666zm0 0" transform="matrix(.04688 0 0 .04688 0 10.08)" fill="url(#h)" stroke-width="3" stroke-linecap="round" stroke="#212121"/><path d="M322.803 148.799c17.498 0 31.746 14.248 31.746 31.747 0 17.581-14.248 31.747-31.746 31.747-17.582 0-31.747-14.166-31.747-31.747 0-17.499 14.165-31.747 31.747-31.747zm0 0" transform="matrix(.04688 0 0 .04688 0 10.08)" fill="url(#i)" stroke-width="3" stroke-linecap="round" stroke="#212121"/><path d="M2.48 2.172a.989.989 0 0 0-.992.992v.25c0-.55.442-.992.992-.992h18.856c.547 0 .992.441.992.992v-.25a.991.991 0 0 0-.992-.992zm0 0" fill="#fff" fill-opacity=".392"/><path d="M2.48 21.027a.992.992 0 0 1-.992-.996v-.246c0 .55.442.992.992.992h18.856a.991.991 0 0 0 .992-.992v.246c0 .551-.445.996-.992.996zm0 0" fill-opacity=".235"/><path d="M9.688 5.277a.494.494 0 0 0-.508.493v6.449c0 .383.414.62.742.426l5.46-3.223a.497.497 0 0 0 0-.852l-5.46-3.226a.526.526 0 0 0-.235-.067zm0 0" fill="url(#j)"/><path d="M9.664 5.277a.491.491 0 0 0-.484.493v.246c0-.278.23-.504.508-.493.085 0 .164.024.234.067l5.46 3.226a.48.48 0 0 1 .227.301.496.496 0 0 0-.226-.547L9.922 5.344a.526.526 0 0 0-.235-.067h-.023zm0 0" fill="#fff" fill-opacity=".588"/><path d="M9.664 12.715a.491.491 0 0 1-.484-.492v-.246c0 .28.23.503.508.496a.484.484 0 0 0 .234-.07l5.46-3.227a.48.48 0 0 0 .227-.301c.051.2-.027.43-.226.547l-5.461 3.226a.442.442 0 0 1-.235.067h-.023zm0 0" fill-opacity=".235"/><path d="M9.691 5.207a.565.565 0 0 0-.582.563v6.449c0 .433.477.707.852.488l5.457-3.227a.564.564 0 0 0 0-.968L9.961 5.285a.598.598 0 0 0-.27-.078zm-.004.14c.07.005.141.024.2.06l5.457 3.222a.422.422 0 0 1 0 .73l-5.457 3.227a.42.42 0 0 1-.637-.367v-6.45c0-.238.195-.43.438-.421zm0 0" fill="#212121"/><path d="M1.488 15.68h20.84v.265H1.488zm0 0" fill-opacity=".471"/><path d="M1.488 15.445h20.84v.254H1.488zm0 0" fill-opacity=".235"/><path d="M1.488 15.941h20.84v.254H1.488zm0 0" fill="#f8f8f8" fill-opacity=".392"/><path d="M2.48 2.102c-.585 0-1.062.476-1.062 1.062v16.867c0 .59.477 1.067 1.062 1.067h18.856c.586 0 1.062-.477 1.062-1.067V3.164c0-.586-.476-1.062-1.062-1.062zm0 .14h18.856c.512 0 .922.41.922.922v16.867a.92.92 0 0 1-.922.926H2.48a.92.92 0 0 1-.921-.926V3.164c0-.512.41-.922.921-.922zm0 0" fill="#212121"/></svg>
